src/standard/fire-extinguisher.svg

<svg xmlns="http://www.w3.org/2000/svg" viewBox="0 0 36 36">
  <path d="M19.62 10.41V9.5a2.6 2.6 0 0 0 1.91-1.88H23a.62.62 0 1 0 0-1.24h-1.45a2.62 2.62 0 0 0-5.15.33A10.63 10.63 0 0 0 8.38 17v10a.62.62 0 0 0 1.24 0V17a9.4 9.4 0 0 1 7-9 2.64 2.64 0 0 0 1.76 1.5v.91a6.62 6.62 0 0 0-6 6.59v14a.62.62 0 0 0 .62.62h12a.62.62 0 0 0 .62-.62V17a6.64 6.64 0 0 0-6-6.59ZM19 5.59a1.36 1.36 0 0 1 1.24.79 19.18 19.18 0 0 0-2.52.08A1.38 1.38 0 0 1 19 5.59ZM17.85 7.7a20.27 20.27 0 0 1 2.35-.08 1.37 1.37 0 0 1-2.35.08ZM19 11.62a5.43 5.43 0 0 1 5.38 5.76H13.62A5.43 5.43 0 0 1 19 11.62Zm5.38 12.76H13.62v-5.76h10.76Zm-10.76 6v-4.76h10.76v4.76Z"/>
</svg>

<svg id="b409e26e-aac1-43a9-bfb3-0247dfe8c130" data-name="Icon" xmlns="http://www.w3.org/2000/svg" viewBox="0 0 36 36">
  <title>Fire extinguisher icon - Black</title>
<desc>rescue, drill, save, fireman, firefighter, fire, put out, shapes and signage</desc>
<metadata><?xpacket begin="﻿" id="W5M0MpCehiHzreSzNTczkc9d"?>
<x:xmpmeta xmlns:x="adobe:ns:meta/" x:xmptk="Adobe XMP Core 8.0-c001 1.000000, 0000/00/00-00:00:00        ">
   <rdf:RDF xmlns:rdf="http://www.w3.org/1999/02/22-rdf-syntax-ns#">
      <rdf:Description rdf:about=""
            xmlns:xmp="http://ns.adobe.com/xap/1.0/"
            xmlns:dc="http://purl.org/dc/elements/1.1/"
            xmlns:cq="http://www.day.com/jcr/cq/1.0"
            xmlns:tiff="http://ns.adobe.com/tiff/1.0/">
         <xmp:rhcc-effective-on>2023-12-08T17:37:59.194Z</xmp:rhcc-effective-on>
         <xmp:rhcc-metadata-complete-moderator>pending</xmp:rhcc-metadata-complete-moderator>
         <xmp:rhcc-translation-id>TRA8bace0e1-02f1-4830-851d-3630f8e9ac27</xmp:rhcc-translation-id>
         <xmp:brand-content-type>Icon</xmp:brand-content-type>
         <xmp:CreateDate>2023-12-08T17:37:59.194Z</xmp:CreateDate>
         <xmp:rhcc-effective-on-set-on-upload>true</xmp:rhcc-effective-on-set-on-upload>
         <xmp:rhcc-metadata-complete-uploader>pending</xmp:rhcc-metadata-complete-uploader>
         <xmp:rhcc-file-last-modified>2023-12-08T17:40:48.731Z</xmp:rhcc-file-last-modified>
         <xmp:rhcc-audience>rhcc-audience:internal</xmp:rhcc-audience>
         <xmp:rhcc-rights-restricted>no</xmp:rhcc-rights-restricted>
         <xmp:brand-content-subtype>Icon</xmp:brand-content-subtype>
         <xmp:rhcc-derivative-id>DER8bace0e1-02f1-4830-851d-3630f8e9ac27</xmp:rhcc-derivative-id>
         <xmp:brand-logo-color>Black</xmp:brand-logo-color>
         <xmp:rhcc-notify-portal-subscribers-on-change>yes</xmp:rhcc-notify-portal-subscribers-on-change>
         <dc:format>image/svg+xml</dc:format>
         <dc:modified>2024-02-09T20:27:59.368Z</dc:modified>
         <dc:title>
            <rdf:Alt>
               <rdf:li xml:lang="x-default">Fire extinguisher icon - Black</rdf:li>
            </rdf:Alt>
         </dc:title>
         <dc:description>
            <rdf:Alt>
               <rdf:li xml:lang="x-default">rescue, drill, save, fireman, firefighter, fire, put out, shapes and signage</rdf:li>
            </rdf:Alt>
         </dc:description>
         <cq:lastReplicationAction_scene7>Activate</cq:lastReplicationAction_scene7>
         <cq:lastReplicationAction_publish>Activate</cq:lastReplicationAction_publish>
         <cq:lastReplicated_publish>2024-02-09T22:14:50.723Z</cq:lastReplicated_publish>
         <cq:lastReplicatedBy>workflow-process-service</cq:lastReplicatedBy>
         <cq:lastReplicationAction>Activate</cq:lastReplicationAction>
         <cq:lastReplicatedBy_publish>workflow-process-service</cq:lastReplicatedBy_publish>
         <cq:isDelivered>true</cq:isDelivered>
         <cq:lastReplicated>2024-02-09T22:14:50.723Z</cq:lastReplicated>
         <cq:lastReplicatedBy_scene7>workflow-process-service</cq:lastReplicatedBy_scene7>
         <cq:lastReplicated_scene7>2024-02-09T22:14:50.723Z</cq:lastReplicated_scene7>
         <tiff:ImageLength>36</tiff:ImageLength>
         <tiff:ImageWidth>36</tiff:ImageWidth>
      </rdf:Description>
   </rdf:RDF>
</x:xmpmeta>
                                                                                                    
                                                                                                    
                                                                                                    
                                                                                                    
                                                                                                    
                                                                                                    
                                                                                                    
                                                                                                    
                                                                                                    
                                                                                                    
                                 
<?xpacket end="w"?></metadata>
<path d="M19.62,10.41V9.5a2.6,2.6,0,0,0,1.91-1.88H23a.62.62,0,1,0,0-1.24H21.55a2.62,2.62,0,0,0-5.15.33A10.63,10.63,0,0,0,8.38,17V27a.62.62,0,0,0,1.24,0V17a9.4,9.4,0,0,1,7-9A2.64,2.64,0,0,0,18.38,9.5v.91a6.62,6.62,0,0,0-6,6.59c0,.32,0,7.42,0,8v6a.62.62,0,0,0,.62.62H25a.62.62,0,0,0,.62-.62V25c0-.6,0-7.65,0-8A6.64,6.64,0,0,0,19.62,10.41ZM19,5.59a1.36,1.36,0,0,1,1.24.79,19.18,19.18,0,0,0-2.52.08A1.38,1.38,0,0,1,19,5.59ZM17.85,7.7a20.27,20.27,0,0,1,2.35-.08A1.37,1.37,0,0,1,17.85,7.7ZM19,11.62a5.43,5.43,0,0,1,5.38,5.76H13.62A5.43,5.43,0,0,1,19,11.62Zm5.38,12.76H13.62V18.62H24.38Zm-10.76,6V25.62H24.38v4.76Z"/>
</svg>
